Systematic/src/svg/Nintendo - GameCube-content.svg

<?xml version="1.0" encoding="UTF-8" standalone="no"?>
<svg
   xmlns:dc="http://purl.org/dc/elements/1.1/"
   xmlns:cc="http://creativecommons.org/ns#"
   xmlns:rdf="http://www.w3.org/1999/02/22-rdf-syntax-ns#"
   xmlns:svg="http://www.w3.org/2000/svg"
   xmlns="http://www.w3.org/2000/svg"
   viewBox="0 0 330.66665 330.66665"
   height="330.66666"
   width="330.66666"
   xml:space="preserve"
   id="svg2"
   version="1.1"><metadata
     id="metadata8"><rdf:RDF><cc:Work
         rdf:about=""><dc:format>image/svg+xml</dc:format><dc:type
           rdf:resource="http://purl.org/dc/dcmitype/StillImage" /></cc:Work></rdf:RDF></metadata><defs
     id="defs6"><clipPath
       id="clipPath18"
       clipPathUnits="userSpaceOnUse"><path
         id="path16"
         d="M 0,256 H 256 V 0 H 0 Z" /></clipPath><clipPath
       id="clipPath26"
       clipPathUnits="userSpaceOnUse"><path
         id="path24"
         d="M 4,252 H 252 V 4 H 4 Z" /></clipPath></defs><g
     transform="matrix(1.3333333,0,0,-1.3333333,-5.3333332,335.99999)"
     id="g10"><g
       id="g12"><g
         clip-path="url(#clipPath18)"
         id="g14"><g
           id="g20"><g
             id="g22" /><g
             id="g34"><g
               style="opacity:0.5"
               id="g32"
               clip-path="url(#clipPath26)"><g
                 id="g30"
                 transform="translate(252,128)"><path
                   id="path28"
                   style="fill:#ffffff;fill-opacity:1;fill-rule:nonzero;stroke:none"
                   d="m 0,0 c 0,-68.483 -55.517,-124 -124,-124 -68.483,0 -124,55.517 -124,124 0,68.483 55.517,124 124,124 C -55.517,124 0,68.483 0,0" /></g></g></g></g><g
           transform="translate(128.1634,84.4955)"
           id="g36"><path
             id="path38"
             style="fill:#35509e;fill-opacity:1;fill-rule:nonzero;stroke:none"
             d="m 0,0 c -23.992,-0.09 -43.578,19.354 -43.668,43.341 -0.09,23.988 19.349,43.578 43.341,43.668 C 23.661,87.099 43.246,67.655 43.336,43.668 43.426,19.68 23.988,0.09 0,0 m -0.599,159.504 c -64.07,-0.241 -115.804,-52.37 -115.564,-116.435 0.241,-64.065 52.365,-115.804 116.435,-115.564 64.051,0.241 115.804,52.37 115.564,116.435 -0.241,64.066 -52.384,115.804 -116.435,115.564" /></g><g
           transform="translate(160.1966,98.779)"
           id="g40"><path
             id="path42"
             style="fill:#191919;fill-opacity:1;fill-rule:nonzero;stroke:none"
             d="m 0,0 c -7.926,-8.728 -19.341,-14.236 -32.033,-14.283 -12.693,-0.048 -24.151,5.374 -32.143,14.042 l -80.158,-0.301 c 13.183,-49.808 58.642,-86.439 112.574,-86.236 53.915,0.202 99.108,37.174 111.921,87.079 z" /></g><g
           transform="translate(128.0785,108.0068)"
           id="g44"><path
             id="path46"
             style="fill:#e6e6e6;fill-opacity:1;fill-rule:nonzero;stroke:none"
             d="M 0,0 C -11.023,-0.041 -20.04,8.888 -20.082,19.918 -20.123,30.954 -11.173,39.958 -0.15,40 10.879,40.041 19.877,31.104 19.918,20.068 19.959,9.039 11.03,0.041 0,0 m -0.248,65.996 c -25.364,-0.095 -45.925,-20.825 -45.83,-46.176 0.095,-25.35 20.812,-45.925 46.176,-45.83 25.337,0.095 45.918,20.825 45.823,46.176 -0.095,25.35 -20.831,45.925 -46.169,45.83" /></g></g></g></g></svg>

<svg xmlns="http://www.w3.org/2000/svg" xml:space="preserve" width="330.667" height="330.667"><defs><clipPath id="a" clipPathUnits="userSpaceOnUse"><path d="M0 256h256V0H0Z"/></clipPath><clipPath id="b" clipPathUnits="userSpaceOnUse"><path d="M4 252h248V4H4Z"/></clipPath></defs><g clip-path="url(#a)" transform="matrix(1.33333 0 0 -1.33333 -5.333 336)"><g clip-path="url(#b)" style="opacity:.5"><path d="M0 0c0-68.483-55.517-124-124-124S-248-68.483-248 0s55.517 124 124 124S0 68.483 0 0" style="fill:#fff;fill-opacity:1;fill-rule:nonzero;stroke:none" transform="translate(252 128)"/></g><path d="M0 0c-23.992-.09-43.578 19.354-43.668 43.341S-24.319 86.919-.327 87.009c23.988.09 43.573-19.354 43.663-43.341S23.988.09 0 0m-.599 159.504c-64.07-.241-115.804-52.37-115.564-116.435S-63.798-72.735.272-72.495c64.051.241 115.804 52.37 115.564 116.435-.241 64.066-52.384 115.804-116.435 115.564" style="fill:#35509e;fill-opacity:1;fill-rule:nonzero;stroke:none" transform="translate(128.163 84.496)"/><path d="M0 0c-7.926-8.728-19.341-14.236-32.033-14.283-12.693-.048-24.151 5.374-32.143 14.042l-80.158-.301C-131.151-50.35-85.692-86.981-31.76-86.778 22.155-86.576 67.348-49.604 80.161.301z" style="fill:#191919;fill-opacity:1;fill-rule:nonzero;stroke:none" transform="translate(160.197 98.779)"/><path d="M0 0c-11.023-.041-20.04 8.888-20.082 19.918C-20.123 30.954-11.173 39.958-.15 40c11.029.041 20.027-8.896 20.068-19.932C19.959 9.039 11.03.041 0 0m-.248 65.996c-25.364-.095-45.925-20.825-45.83-46.176.095-25.35 20.812-45.925 46.176-45.83 25.337.095 45.918 20.825 45.823 46.176-.095 25.35-20.831 45.925-46.169 45.83" style="fill:#e6e6e6;fill-opacity:1;fill-rule:nonzero;stroke:none" transform="translate(128.078 108.007)"/></g></svg>
